Gruvbox-Plus-Dark/actions/16/insert-more-mark.svg

<svg xmlns="http://www.w3.org/2000/svg" width="16" height="16" viewBox="0 0 16 16">
 <defs>
  <style id="current-color-scheme" type="text/css">
   .ColorScheme-Text { color:#ebdbb2; } .ColorScheme-Highlight { color:#458588; }
  </style>
 </defs>
 <path style="fill:currentColor" class="ColorScheme-Text" d="M 2.8398438 1.0058594 C 2.5588138 1.0495894 1.9960938 1.2398131 1.9960938 1.9394531 L 1.9960938 14.066406 C 1.9960938 14.999266 2.9960938 15 2.9960938 15 L 12.986328 15 C 13.985538 15 13.986328 14.066406 13.986328 14.066406 C 14.005128 14.023396 13.991328 7.1143812 13.986328 4.7382812 L 9.9902344 1.0058594 L 2.9960938 1.0058594 C 2.9960938 1.0058594 2.9335938 0.99130938 2.8398438 1.0058594 z M 2.9960938 6.9980469 L 12.996094 6.9980469 L 12.996094 8.9980469 L 2.9960938 8.9980469 L 2.9960938 6.9980469 z"/>
</svg>

<svg width="16" height="16" version="1.1" viewBox="0 0 16 16" xmlns="http://www.w3.org/2000/svg">
  <defs>
    <style type="text/css">.ColorScheme-Text { color:#ebdbb2; } .ColorScheme-Highlight { color:#458588; }</style>
  </defs>
  <path class="ColorScheme-Text" d="m2.84 1.006c-0.281 0.04373-0.8438 0.234-0.8438 0.9336v12.13c0 0.9329 1 0.9336 1 0.9336h9.99c0.9992 0 1-0.9336 1-0.9336 0.0188-0.04301 5e-3 -6.952 0-9.328l-3.996-3.732h-6.994s-0.0625-0.01455-0.1562 0zm1.16 5.994h8v2h-8z" fill="currentColor"/>
</svg>
